material/.icons/material/video-vintage.svg

<svg xmlns="http://www.w3.org/2000/svg" viewBox="0 0 24 24"><path d="M18 14.5V11a1 1 0 00-1-1h-1c2.24-1.61 2.76-4.73 1.15-7a5.02 5.02 0 00-6.98-1.13C9.5 2.35 8.96 3 8.6 3.73a4.985 4.985 0 00-6.88 1.64 5.002 5.002 0 001.64 6.88c.21.12.42.25.64.33V21a1 1 0 001 1h12a1 1 0 001-1v-3.5l4 4v-11l-4 4M13 4a2 2 0 012 2 2 2 0 01-2 2 2 2 0 01-2-2 2 2 0 012-2M6 6a2 2 0 012 2 2 2 0 01-2 2 2 2 0 01-2-2 2 2 0 012-2z"/></svg>

<?xml version="1.0" encoding="UTF-8"?><!DOCTYPE svg PUBLIC "-//W3C//DTD SVG 1.1//EN" "http://www.w3.org/Graphics/SVG/1.1/DTD/svg11.dtd"><svg xmlns="http://www.w3.org/2000/svg" xmlns:xlink="http://www.w3.org/1999/xlink" version="1.1" id="mdi-video-vintage" width="24" height="24" viewBox="0 0 24 24"><path d="M18,14.5V11A1,1 0 0,0 17,10H16C18.24,8.39 18.76,5.27 17.15,3C15.54,0.78 12.42,0.26 10.17,1.87C9.5,2.35 8.96,3 8.6,3.73C6.25,2.28 3.17,3 1.72,5.37C0.28,7.72 1,10.8 3.36,12.25C3.57,12.37 3.78,12.5 4,12.58V21A1,1 0 0,0 5,22H17A1,1 0 0,0 18,21V17.5L22,21.5V10.5L18,14.5M13,4A2,2 0 0,1 15,6A2,2 0 0,1 13,8A2,2 0 0,1 11,6A2,2 0 0,1 13,4M6,6A2,2 0 0,1 8,8A2,2 0 0,1 6,10A2,2 0 0,1 4,8A2,2 0 0,1 6,6Z" /></svg>
